X: 116
T:Missa Mater patris / Kyrie
N: Derived from Jos1001a-Missa_Mater_patris-Kyrie.krn
C: Josquin des Prez
%%abc-version 2.0
%%abcx-abcm2ps-target-version 5.9.1 (29 Sep 2008)
%%abc-creator hum2abc beta
%%abcx-conversion-date 2019/02/12 16:15:43
%%abc-edited-by Jesse Rodin
%%abc-edited-by Will Watson 16/08/11
%%abcx-initial-encoding-date 2011/08/16/
%%humdrum-veritas 1548127875
%%humdrum-veritas-data 1744828226
%%linebreak <none>
%%barnumbers 0
L: 1/4
M: 2/1
Q: 1/2=120
%%staves [1 2 3 4]
V: 1 clef=treble-8
V: 2 clef=treble-8
V: 3 clef=treble-8
V: 4 clef=bass
K: F
[V:1] z8 | 
[V:2] z8 | 
[V:3] z8 | 
[V:4] G,8 | 
[V:1] z8 | 
[V:2] z8 | 
[V:3] z8 | 
[V:4] G,4F,4 | 
[V:1] z8 | 
[V:2] G8 | 
[V:3] z8 | 
[V:4] B,6G,2 | 
[V:1] z8 | 
[V:2] G4F4 | 
[V:3] z8 | 
[V:4] B,4C4 | 
[V:1] z8 | 
[V:2] B6G2 | 
[V:3] z8 | 
[V:4] D4G,2D2- | 
[V:1] z8 | 
[V:2] B4c4 | 
[V:3] z8 | 
[V:4] D2CB,A,4 | 
[V:1] z8 | 
[V:2] d4G2d2- | 
[V:3] z8 | 
[V:4] G,2D3CB,2- | 
[V:1] z8 | 
[V:2] d2cBA4 | 
[V:3] z8 | 
[V:4] B,2A,G,F,2C2 | 
[V:1] z8 | 
[V:2] G2d3cB2- | 
[V:3] z8 | 
[V:4] B,3CD_ED2- | 
[V:1] z8 | 
[V:2] B2AGF2c2 | 
[V:3] z8 | 
[V:4] D2CB,A,4 | 
[V:1] z8 | 
[V:2] B3cd_ed2- | 
[V:3] z8 | 
[V:4] G,3A,B,CB,2- | 
[V:1] z8 | 
[V:2] d2cBA4 | 
[V:3] z8 | 
[V:4] B,2A,G,^F,G,A,F, | 
[V:1] z8 | 
[V:2] G4z4 | 
[V:3] z8 | 
[V:4] G,8 | 
[V:1] d8 | 
[V:2] B8 | 
[V:3] z8 | 
[V:4] z4D,3E, | 
[V:1] c4f4 | 
[V:2] A4d4 | 
[V:3] z8 | 
[V:4] F,4B,,4 | 
[V:1] e2d4cB | 
[V:2] c2B4AG | 
[V:3] z8 | 
[V:4] C,2G,,2B,,2C,2 | 
[V:1] A4z4 | 
[V:2] F4z4 | 
[V:3] z8 | 
[V:4] D,4z4 | 
[V:1] d8 | 
[V:2] B8 | 
[V:3] F8 | 
[V:4] B,,8- | 
[V:1] B4B4 | 
[V:2] G4G4 | 
[V:3] D4D4 | 
[V:4] B,,4B,,4 | 
[V:1] c4d4 | 
[V:2] A4B4 | 
[V:3] E4F4 | 
[V:4] A,,4D,4 | 
[V:1] _e6c2 | 
[V:2] c6A2 | 
[V:3] G6E2 | 
[V:4] C,4C,4- | 
[V:1] c4z4 | 
[V:2] A4z2A2 | 
[V:3] E4z4 | 
[V:4] C,2A,,2A,,4 | 
[V:1] z8 | 
[V:2] B2c2d2GA | 
[V:3] z8 | 
[V:4] z2A,,2B,,2C,2 | 
[V:1] z8 | 
[V:2] Bcd4cB | 
[V:3] z8 | 
[V:4] D,2G,,A,,B,,C,D,E, | 
[V:1] z8 | 
[V:2] A2G2A4 | 
[V:3] z8 | 
[V:4] F,2G,4^F,2 | 
[V:1] z8 | 
[V:2] G4z4 | 
[V:3] z8 | 
[V:4] G,8 | 
[V:1] B8 | 
[V:2] G8 | 
[V:3] z8 | 
[V:4] G,,6A,,2 | 
[V:1] B4A4 | 
[V:2] G4F4 | 
[V:3] z8 | 
[V:4] B,,2C,2D,4 | 
[V:1] d6B2 | 
[V:2] B6G2 | 
[V:3] z8 | 
[V:4] G,,2G,F,G,A,B,2- | 
[V:1] d4e4 | 
[V:2] B4c4 | 
[V:3] z4G4 | 
[V:4] B,A,G,F,E,4 | 
[V:1] f8- | 
[V:2] d8- | 
[V:3] A6B2 | 
[V:4] D,8- | 
[V:1] f8- | 
[V:2] d8- | 
[V:3] A2B4AG | 
[V:4] D,4B,,3C, | 
[V:1] f8- | 
[V:2] d8- | 
[V:3] F4B4 | 
[V:4] D,4B,,3C, | 
[V:1] f8 ||  
[V:2] d8 ||  
[V:3] A8 ||  
[V:4] D,8 ||  
[V:1] [M:2/1]z8 | 
[V:2] [M:2/1]d8- | 
[V:3] [M:2/1]z8 | 
[V:4] [M:2/1]D,3E,F,2G,2 | 
[V:1] z8 | 
[V:2] d4d4 | 
[V:3] z8 | 
[V:4] G,,F,,G,,A,,B,,A,,B,,C, | 
[V:1] z8 | 
[V:2] d3cd2c2- | 
[V:3] z8 | 
[V:4] D,C,D,E,F,G,A,2- | 
[V:1] z8 | 
[V:2] cBAGA4 | 
[V:3] z8 | 
[V:4] A,G,G,4^F,2 | 
[V:1] z8 | 
[V:2] G4D2G2 | 
[V:3] z8 | 
[V:4] G,4D4- | 
[V:1] z8 | 
[V:2] F2G3FGA | 
[V:3] z8 | 
[V:4] D4D4 | 
[V:1] z8 | 
[V:2] Bcdefga2- | 
[V:3] z8 | 
[V:4] D3CD2C2- | 
[V:1] z8 | 
[V:2] agg4^f2 | 
[V:3] z8 | 
[V:4] CB,A,G,A,4 | 
[V:1] z4e4 | 
[V:2] g4c4 | 
[V:3] z4G4 | 
[V:4] G,4E,4 | 
[V:1] f4g4 | 
[V:2] d4e4 | 
[V:3] A4B4 | 
[V:4] D,4G,4 | 
[V:1] a4f4 | 
[V:2] f4d4 | 
[V:3] c4A4 | 
[V:4] F,6D,2 | 
[V:1] g8 | 
[V:2] e8 | 
[V:3] B8 | 
[V:4] G,2E,2G,4 | 
[V:1] f8 | 
[V:2] d8 | 
[V:3] A8 | 
[V:4] D,8- | 
[V:1] z8 | 
[V:2] z2d4B2 | 
[V:3] z8 | 
[V:4] D,4z2G,2 | 
[V:1] z8 | 
[V:2] c2d3cBA | 
[V:3] z8 | 
[V:4] E,2F,2G,3F, | 
[V:1] z8 | 
[V:2] G2A2B2G2- | 
[V:3] z8 | 
[V:4] E,D,C,2D,2E,2 | 
[V:1] z8 | 
[V:2] G2c3BAG | 
[V:3] z8 | 
[V:4] C,4F,3E, | 
[V:1] z8 | 
[V:2] F2G2A2F2- | 
[V:3] z8 | 
[V:4] D,C,B,,2C,2D,2 | 
[V:1] z8 | 
[V:2] F2G2A2B2- | 
[V:3] z8 | 
[V:4] B,,4C,2D,2 | 
[V:1] z8 | 
[V:2] BAG4^F2 | 
[V:3] z8 | 
[V:4] G,,4A,,4 | 
[V:1] z8 | 
[V:2] G8 | 
[V:3] z8 | 
[V:4] G,,4G,4 | 
[V:1] z4e4 | 
[V:2] z4c4 | 
[V:3] z4G4 | 
[V:4] C,4E,4 | 
[V:1] f4g4 | 
[V:2] d4e4 | 
[V:3] A4B4 | 
[V:4] D,4G,4 | 
[V:1] a4f4 | 
[V:2] f4d4 | 
[V:3] c4A4 | 
[V:4] F,6D,2 | 
[V:1] g8 | 
[V:2] e8 | 
[V:3] B8 | 
[V:4] G,2E,2G,4 | 
[V:1] f8 ||  
[V:2] d8 ||  
[V:3] A8 ||  
[V:4] D,8 ||  
[V:1] [M:2/1]z8 | 
[V:2] [M:2/1]d8 | 
[V:3] [M:2/1]z8 | 
[V:4] [M:2/1]G,6F,2 | 
[V:1] z8 | 
[V:2] c2B2d4 | 
[V:3] z8 | 
[V:4] E,2G,4F,2 | 
[V:1] z8 | 
[V:2] c2B2d4 | 
[V:3] z8 | 
[V:4] E,2G,4F,2 | 
[V:1] z8 | 
[V:2] c2B2d4 | 
[V:3] z8 | 
[V:4] E,2G,4F,2 | 
[V:1] z8 | 
[V:2] c2B2A3B | 
[V:3] z8 | 
[V:4] E,2D,3E,F,G, | 
[V:1] z8 | 
[V:2] c2d4c2 | 
[V:3] z8 | 
[V:4] A,2D,E,F,G,A,2- | 
[V:1] z8 | 
[V:2] B2G2A4 | 
[V:3] z8 | 
[V:4] A,G,G,4^F,2 | 
[V:1] z4d4- | 
[V:2] G4B4- | 
[V:3] z8 | 
[V:4] G,8 | 
[V:1] d2cBc2B2 | 
[V:2] B2AGA2G2 | 
[V:3] z8 | 
[V:4] z2G,2F,2G,2 | 
[V:1] _e4d2c2- | 
[V:2] c4B2A2- | 
[V:3] z8 | 
[V:4] C,3B,,G,,2A,,2- | 
[V:1] c2BAG2F2 | 
[V:2] A2GFE2D2 | 
[V:3] z8 | 
[V:4] A,,2B,,2C,2D,2 | 
[V:1] GFB4A2 | 
[V:2] EDG4^F2 | 
[V:3] z8 | 
[V:4] G,,4D,4 | 
[V:1] B4z4 | 
[V:2] G4z4 | 
[V:3] z8 | 
[V:4] z4G,,4 | 
[V:1] B4c4 | 
[V:2] G4A4 | 
[V:3] D4E4 | 
[V:4] B,,4A,,4 | 
[V:1] d4_e4- | 
[V:2] B4c4- | 
[V:3] F4G4- | 
[V:4] D,4C,4- | 
[V:1] e2d2B4 | 
[V:2] c2B2G4 | 
[V:3] G2F2D4 | 
[V:4] C,2D,2G,,4 | 
[V:1] c8 | 
[V:2] A8 | 
[V:3] E8 | 
[V:4] C,8 | 
[V:1] [M:3/1]B6z6 | 
[V:2] [M:3/1]G6z6 | 
[V:3] [M:3/1]D6z6 | 
[V:4] [M:3/1]G,,8G,,4 | 
[V:1] [M:3/1]B8c4 | 
[V:2] [M:3/1]G8A4 | 
[V:3] [M:3/1]D8E4 | 
[V:4] [M:3/1]B,,8A,,4 | 
[V:1] d4_e6d2 | 
[V:2] B4c6B2 | 
[V:3] F4G6F2 | 
[V:4] D,4C,6D,2 | 
[V:1] B4c8 | 
[V:2] G4A8 | 
[V:3] D4E8 | 
[V:4] G,,4C,8 | 
[V:1] B12 |]  
[V:2] G12 |]  
[V:3] D12 |]  
[V:4] G,,12 |]  



